assets/images/logo-uni-ucma.svg

<svg fill="none" height="37" viewBox="0 0 96 37" width="96" xmlns="http://www.w3.org/2000/svg"><g fill="#001b3c"><path d="m28.1813 19.9902h-12.5599v-12.56955h12.5599zm0 10.4629c0 1.804-1.468 3.272-3.2722 3.272h-5.9647c-1.125 0-2.2224.3168-3.1742.916l-.1488.0937v-13.5793h12.5599zm-13.7255-10.4629h-12.55998v-12.56955h12.55998zm0 14.7446-.1488-.0937c-.9519-.5992-2.0493-.916-3.1738-.916h-5.96515c-1.80424 0-3.27223-1.468-3.27223-3.272v-9.2976h12.55998zm-13.725331-28.47925v24.19755c0 2.4469 1.990671 4.4373 4.437581 4.4373h5.96515c1.2859 0 2.495.5012 3.4039 1.4099l.5012.5015.5017-.5015c.9092-.9087 2.1183-1.4099 3.4044-1.4099h5.9647c2.4471 0 4.4381-1.9904 4.4381-4.4373v-24.19755z"/><path d="m7.33629 22.9474h-1.16536v9.1448h1.16536z"/><path d="m10.0558 22.9474h-1.16534v9.1448h1.16534z"/><path d="m12.7753 22.9474h-1.1653v9.1448h1.1653z"/><path d="m4.61535 32.0345v-9.0863h-1.16535v7.0464l.00909.0008-.00909.1407v.2493c.01667.3438.10787.8372.44689 1.2078.17734.1948.41885.3426.71846.4413z"/><path d="m18.9883 8.91508h-1.5991v9.57242h1.5991z"/><path d="m22.6919 8.91508h-1.5994v9.57242h1.5994z"/><path d="m26.3376 8.92139h-1.5994v9.56611h1.5994z"/><path d="m4.83526 10.6111.04446-.0285c.78111-.504 1.877-.4873 2.66569.0437l.04294.0288v5.9836l-.13187-.0502c-.79475-.3007-1.68601-.309-2.49087-.017l-.13035.047zm3.92754.0352.04269-.0291c.77707-.5323 1.87451-.5467 2.66641-.0346l.0445.0285v6.0074l-.1304-.047c-.794-.2882-1.70188-.2814-2.49133.017l-.13187.0502zm-2.576 6.8602c.70254 0 1.38867.1965 1.9889.5692.60074-.3727 1.28687-.5692 1.9894-.5692.8951 0 1.7631.3186 2.4444.8968l.0813.0687v-8.5293l-.2074-.17558c-.6462-.54844-1.47-.85058-2.3183-.85058-.6851 0-1.35481.19781-1.93685.57144l-.05255.03385-.05229-.03385c-.58179-.37363-1.2515-.57144-1.93661-.57144-.84831 0-1.67212.30214-2.31884.85058l-.20715.17558v8.5293l.0811-.0687c.68183-.5782 1.55009-.8968 2.44489-.8968z"/><path d="m19.9919 27.4596 1.323-1.8571v2.8486h1.1744v-2.8347l1.3033 1.8429c.2642.3848.4042.8349.4042 1.3015 0 1.2707-1.0337 2.3042-2.3044 2.3042-1.2705 0-2.3042-1.0335-2.3042-2.3042 0-.4666.1397-.9167.4037-1.3012zm1.9005 4.7801c1.9181 0 3.4788-1.5607 3.4788-3.4789 0-.7058-.2112-1.3856-.6103-1.9661l-.0387-.0564-2.82-3.9851-2.8802 4.043c-.3976.5795-.6083 1.2596-.6083 1.9646 0 1.9182 1.5607 3.4789 3.4787 3.4789z"/><path d="m4.46601 4.47805h20.81369l1.9394-4.4428938h-1.7639l-1.2383 2.8372138h-3.4039l.619-2.8372138h-1.6545l-.6189 2.8372138h-3.4776v-2.8372138h-1.6166v2.8372138h-3.4773l-.6192-2.8372138h-1.65468l.61918 2.8372138h-3.4041l-1.23837-2.8372138h-1.76331z"/><path d="m38.2656 13.9151v-2.7715h.8384v2.7091c0 .8195.2628 1.1573.9259 1.1573.6445 0 .9696-.2878.9696-1.2139v-2.6525h.8384v2.7215c0 1.1701-.6318 1.8143-1.8143 1.8143-1.1199 0-1.758-.6131-1.758-1.7643z"/><path d="m42.8262 11.1444h.9949l1.883 3.2346v-3.2346h.7569v4.4732h-.8632l-2.0144-3.4284v3.4284h-.7572z"/><path d="m47.5106 11.1444h.8382v4.4732h-.8382z"/><path d="m49.0369 11.1444h.8695l1.1639 3.6284 1.1701-3.6284h.7816l-1.514 4.4732h-.963z"/><path d="m53.6777 11.1444h2.7962v.657h-1.9641v1.226h1.5761v.6258h-1.5761v1.3073h2.0705v.6571h-2.9026z"/><path d="m58.832 13.2151c.5568 0 .8508-.2374.8508-.7131v-.025c0-.5131-.3193-.6882-.8508-.6882h-.6695v1.4263zm-1.5016-2.0707h1.5016c.9822 0 1.6703.4004 1.6703 1.3139v.025c0 .7005-.4378 1.0572-.9945 1.2009l1.257 1.9334h-.9006l-1.1699-1.8081h-.5318v1.8081h-.8321z"/><path d="m61.09 14.2278h.8008c.0566.4505.2377.8261.9946.8261.4943 0 .8447-.2753.8447-.6884 0-.413-.2061-.5694-.9319-.6881-1.0701-.144-1.5766-.4692-1.5766-1.3074 0-.7321.6255-1.2828 1.5576-1.2828.9633 0 1.539.4381 1.6264 1.295h-.7631c-.0814-.4692-.3502-.6692-.8633-.6692-.5067 0-.7694.244-.7694.5881 0 .363.15.5441.9261.6571 1.0506.1437 1.595.4438 1.595 1.3384 0 .776-.6568 1.3828-1.6455 1.3828-1.22 0-1.7328-.6068-1.7954-1.4516z"/><path d="m65.3625 11.1444h.8382v4.4732h-.8382z"/><path d="m68.1523 11.8014h-1.2452v-.657h3.3285v.657h-1.2451v3.8162h-.8382z"/><path d="m71.449 13.9035h1.32l-.6569-2.0773zm.1688-2.7591h1.0888l1.476 4.4732h-.8632l-.3567-1.1075h-1.708l-.3501 1.1075h-.7819z"/><path d="m75.32 11.8014h-1.2452v-.657h3.3283v.657h-1.2449v3.8162h-.8382z"/><path d="m38.2361 22.8272c0-2.7213 1.5006-4.6288 4.1203-4.6288.674 0 1.4877.0889 2.3016.2796v2.6831h-.0255l-1.2843-2.4668c-.1018-.2034-.1781-.2163-.407-.2544-.1781-.0255-.356-.0382-.5214-.0382-1.9455 0-2.6576 1.8313-2.6576 4.4 0 2.7978.8392 4.3875 2.7467 4.3875.14 0 .3052-.0128.4452-.0255.216-.0255.2923-.0765.3814-.2288l1.297-2.5561h.0255v2.7976c-.7758.1652-1.5895.216-2.1364.216-3.0012 0-4.2855-1.8947-4.2855-4.5652z"/><path d="m47.0225 25.5473c0 .674.4196 1.1065.9665 1.1065.4449 0 .8774-.2799 1.1441-.7377v-.0381l.0258-1.5643c-.2544-.0889-.4959-.1271-.7377-.1271-.9155 0-1.3987.6488-1.3987 1.3607zm2.1617-2.6579v-.0381c0-.9663-.4323-1.6658-1.3607-1.6658-.3178 0-.3433 0-.4196.1778l-.7758 1.6787h-.0252l-.5725-1.6532c.7121-.2923 1.4117-.4196 2.1364-.4196.7503 0 1.2465.1145 1.6151.4962.3562.3686.5722 1.0044.5722 2.0854v.1781l-.0508 2.0728c-.0126.5469.1142.8521.458.8521.2289 0 .3559-.14.4196-.3689h.0253c0 .1271-.0253.2671-.0763.3941-.1397.3689-.4833.6867-.9792.6867-.5596 0-1.0176-.4197-1.0176-1.348-.2541.8521-.8897 1.348-1.7037 1.348-.8776 0-1.6531-.5975-1.6531-1.6658 0-1.2334 1.0428-1.8566 2.0601-1.8566.4446 0 .941.1145 1.3225.3941z"/><path d="m53.774 26.4124c0 .1399 0 .2036.165.2672l1.348.5593v.0256h-3.7259v-.0256l.8647-.5085c.1402-.0763.1402-.1399.1402-.2799v-4.4252c0-.1655-.0129-.2036-.1402-.2925l-.8647-.6359v-.0255h2.2129v1.9457c.165-.8647.8264-2.0475 1.9963-2.0475.2544 0 .458.0508.6232.1528l-.6356 1.8821h-.0255l-.6361-1.4117c-.025-.0508-.0887-.0508-.1524-.0126-.5977.3428-.8905.9791-1.1699 1.564z"/><path d="m58.6296 26.4505c0 .14 0 .1781.1526.267l.8523.5214v.0256h-3.2176v-.0256l.8647-.5087c.1402-.0761.1402-.1397.1402-.2797v-7.2996c0-.1652-.0131-.2159-.1402-.2922l-.8647-.5086v-.0255l2.2127-.2544z"/><path d="m61.2877 23.4237h2.6197v-.0255c0-1.4114-.3304-2.2382-1.1699-2.2382-.8521 0-1.348.8902-1.4498 2.2637zm-.0126.216v.3562c0 1.7168.801 2.645 1.8439 2.645.8773 0 1.564-.4323 2.022-1.564l.0255.0126c-.2673 1.5261-1.1446 2.2762-2.4671 2.2762-1.3862 0-2.6453-.9537-2.6453-3.1409 0-2.4166 1.4754-3.2556 2.696-3.2556 1.221 0 2.3909.7248 2.3909 2.3401 0 .1144-.0129.2289-.0255.3304z"/><path d="m71.6128 26.4505c0 .1526.0127.2036.1526.2797l.8645.5087v.0256h-3.2169v-.0256l.8137-.5087c.1397-.089.1652-.1653.1652-.2542 0-.0892.0382-2.0346.0382-2.5563 0-1.5513-.3434-2.2125-1.0937-2.2125-.5848 0-1.0428.3813-1.3353.9408v3.8025c0 .14 0 .1781.1528.267l.8521.5214v.0256h-3.2177v-.0256l.8648-.5087c.1402-.0761.1402-.1397.1402-.2797v-4.4255c0-.1652-.0132-.2033-.1402-.2925l-.8648-.6356v-.0255h2.2128v1.5003c.3051-1.106.9665-1.6021 1.882-1.6021.8776 0 1.4625.4961 1.6658 1.5769.2926-1.0171 1.0173-1.5769 1.9841-1.5769 1.081 0 1.7292.7884 1.7292 2.5434 0 .7503-.0126 1.9202-.025 2.9375 0 .1526.0124.2036.1524.2797l.8647.5087v.0256h-3.2172v-.0256l.8137-.5087c.1397-.089.1655-.1653.1655-.2542 0-.1018.0379-2.022.0379-2.5308 0-1.5387-.3178-2.238-1.1062-2.238-.5722 0-1.0302.3178-1.3859.9029.0507.2668.0763.572.0763.9029 0 .623-.0129 1.9202-.0256 2.9375z"/><path d="m77.9562 25.5473c0 .674.4196 1.1065.9666 1.1065.4448 0 .8773-.2799 1.1443-.7377v-.0381l.0256-1.5643c-.2544-.0889-.4959-.1271-.7377-.1271-.9155 0-1.3988.6488-1.3988 1.3607zm2.162-2.6579v-.0381c0-.9663-.4323-1.6658-1.3609-1.6658-.3178 0-.3433 0-.4196.1778l-.7758 1.6787h-.0253l-.5724-1.6532c.7124-.2923 1.4116-.4196 2.1364-.4196.7503 0 1.2464.1145 1.615.4962.3562.3686.5725 1.0044.5725 2.0854v.1781l-.0511 2.0728c-.0123.5469.1145.8521.458.8521.2289 0 .356-.14.4197-.3689h.0255c0 .1271-.0255.2671-.0766.3941-.1397.3689-.483.6867-.9791.6867-.5596 0-1.0174-.4197-1.0174-1.348-.2541.8521-.8899 1.348-1.7039 1.348-.8774 0-1.6532-.5975-1.6532-1.6658 0-1.2334 1.0429-1.8566 2.0604-1.8566.4446 0 .9408.1145 1.3223.3941z"/><path d="m88.3205 26.4505c0 .1526.0126.2036.1526.2797l.8647.5087v.0256h-3.2172v-.0256l.814-.5087c.1397-.089.1649-.1653.1649-.2542 0-.0892.0384-2.0346.0384-2.5563 0-1.5513-.3435-2.2125-1.0936-2.2125-.585 0-1.0428.3813-1.3353.9408v3.8025c0 .14 0 .1781.1528.267l.8521.5214v.0256h-3.2177v-.0256l.8648-.5087c.1399-.0761.1399-.1397.1399-.2797v-4.4255c0-.1652-.0129-.2033-.1399-.2925l-.8648-.6356v-.0255h2.2128v1.5003c.3051-1.106.9665-1.6021 1.882-1.6021 1.1191 0 1.7552.7884 1.7552 2.5434 0 .623-.0131 1.9202-.0257 2.9375z"/><path d="m89.4505 30.138.4452-1.9204h.0255l.7374 1.2719c.0637.1016.0892.1524.1526.1524.0508 0 .1018-.0508.1526-.1145.3051-.3688.6103-1.0299.7758-1.4879l.1652-.4575-2.1999-5.6338c-.1018-.2415-.1526-.3178-.2417-.4322l-.3178-.4196v-.0255h2.5179v.0255l-.6104.5848c-.1018.0892-.1144.1399-.051.3052l1.5261 3.9424 1.3606-3.5481c.0763-.2036.0763-.2415-.0381-.3815l-.7629-.9028v-.0255h1.9709v.0255l-.7121.8776c-.1145.127-.1526.2031-.2415.4322l-2.162 5.6717c-.1907.4959-.3688.9155-.6358 1.3351-.3686.5851-.7885.8521-1.3225.8521-.2163 0-.3941-.0508-.5341-.1271z"/></g></svg>

<svg width="96" height="37" viewBox="0 0 96 37" fill="none" xmlns="http://www.w3.org/2000/svg">
<path d="M28.1813 19.9902H15.6214V7.42065H28.1813V19.9902ZM28.1813 30.4531C28.1813 32.2571 26.7133 33.7251 24.9091 33.7251H18.9444C17.8194 33.7251 16.722 34.0419 15.7702 34.6411L15.6214 34.7348V21.1555H28.1813V30.4531ZM14.4558 19.9902H1.89582V7.42065H14.4558V19.9902ZM14.4558 34.7348L14.307 34.6411C13.3551 34.0419 12.2577 33.7251 11.1332 33.7251H5.16805C3.36381 33.7251 1.89582 32.2571 1.89582 30.4531V21.1555H14.4558V34.7348ZM0.730469 6.25555V30.4531C0.730469 32.9 2.72114 34.8904 5.16805 34.8904H11.1332C12.4191 34.8904 13.6282 35.3916 14.5371 36.3003L15.0383 36.8018L15.54 36.3003C16.4492 35.3916 17.6583 34.8904 18.9444 34.8904H24.9091C27.3562 34.8904 29.3472 32.9 29.3472 30.4531V6.25555H0.730469Z" fill="#001B3C"/>
<path d="M7.33629 22.9474H6.17093V32.0922H7.33629V22.9474Z" fill="#001B3C"/>
<path d="M10.0558 22.9474H8.89046V32.0922H10.0558V22.9474Z" fill="#001B3C"/>
<path d="M12.7753 22.9474H11.61V32.0922H12.7753V22.9474Z" fill="#001B3C"/>
<path d="M4.61535 32.0345V22.9482H3.45V29.9946L3.45909 29.9954L3.45 30.1361V30.3854C3.46667 30.7292 3.55787 31.2226 3.89689 31.5932C4.07423 31.788 4.31574 31.9358 4.61535 32.0345Z" fill="#001B3C"/>
<path d="M18.9883 8.91508H17.3892V18.4875H18.9883V8.91508Z" fill="#001B3C"/>
<path d="M22.6919 8.91508H21.0925V18.4875H22.6919V8.91508Z" fill="#001B3C"/>
<path d="M26.3376 8.92139H24.7382V18.4875H26.3376V8.92139Z" fill="#001B3C"/>
<path d="M4.83526 10.6111L4.87972 10.5826C5.66083 10.0786 6.75672 10.0953 7.54541 10.6263L7.58835 10.6551V16.6387L7.45648 16.5885C6.66173 16.2878 5.77047 16.2795 4.96561 16.5715L4.83526 16.6185V10.6111ZM8.7628 10.6463L8.80549 10.6172C9.58256 10.0849 10.68 10.0705 11.4719 10.5826L11.5164 10.6111V16.6185L11.386 16.5715C10.592 16.2833 9.68412 16.2901 8.89467 16.5885L8.7628 16.6387V10.6463ZM6.1868 17.5065C6.88934 17.5065 7.57547 17.703 8.1757 18.0757C8.77644 17.703 9.46257 17.5065 10.1651 17.5065C11.0602 17.5065 11.9282 17.8251 12.6095 18.4033L12.6908 18.472V9.9427L12.4834 9.76712C11.8372 9.21868 11.0134 8.91654 10.1651 8.91654C9.48 8.91654 8.81029 9.11435 8.22825 9.48798L8.1757 9.52183L8.12341 9.48798C7.54162 9.11435 6.87191 8.91654 6.1868 8.91654C5.33849 8.91654 4.51468 9.21868 3.86796 9.76712L3.66081 9.9427V18.472L3.74191 18.4033C4.42374 17.8251 5.292 17.5065 6.1868 17.5065Z" fill="#001B3C"/>
<path d="M19.9919 27.4596L21.3149 25.6025V28.4511H22.4893V25.6164L23.7926 27.4593C24.0568 27.8441 24.1968 28.2942 24.1968 28.7608C24.1968 30.0315 23.1631 31.065 21.8924 31.065C20.6219 31.065 19.5882 30.0315 19.5882 28.7608C19.5882 28.2942 19.7279 27.8441 19.9919 27.4596ZM21.8924 32.2397C23.8105 32.2397 25.3712 30.679 25.3712 28.7608C25.3712 28.055 25.16 27.3752 24.7609 26.7947L24.7222 26.7383L21.9022 22.7532L19.022 26.7962C18.6244 27.3757 18.4137 28.0558 18.4137 28.7608C18.4137 30.679 19.9744 32.2397 21.8924 32.2397Z" fill="#001B3C"/>
<path d="M4.46601 4.47805H25.2797L27.2191 0.0351562H25.4552L24.2169 2.87237H20.813L21.432 0.0351562H19.7775L19.1586 2.87237H15.681V0.0351562H14.0644V2.87237H10.5871L9.9679 0.0351562H8.31322L8.9324 2.87237H5.5283L4.28993 0.0351562H2.52662L4.46601 4.47805Z" fill="#001B3C"/>
<path d="M38.2656 13.9151V11.1436H39.104V13.8527C39.104 14.6722 39.3668 15.01 40.0299 15.01C40.6744 15.01 40.9995 14.7222 40.9995 13.7961V11.1436H41.8379V13.8651C41.8379 15.0352 41.2061 15.6794 40.0236 15.6794C38.9037 15.6794 38.2656 15.0663 38.2656 13.9151Z" fill="#001B3C"/>
<path d="M42.8262 11.1444H43.8211L45.7041 14.379V11.1444H46.461V15.6176H45.5978L43.5834 12.1892V15.6176H42.8262V11.1444Z" fill="#001B3C"/>
<path d="M47.5106 11.1444H48.3488V15.6176H47.5106V11.1444Z" fill="#001B3C"/>
<path d="M49.0369 11.1444H49.9064L51.0703 14.7728L52.2404 11.1444H53.022L51.508 15.6176H50.545L49.0369 11.1444Z" fill="#001B3C"/>
<path d="M53.6777 11.1444H56.4739V11.8014H54.5098V13.0274H56.0859V13.6532H54.5098V14.9605H56.5803V15.6176H53.6777V11.1444Z" fill="#001B3C"/>
<path d="M58.832 13.2151C59.3888 13.2151 59.6828 12.9777 59.6828 12.502V12.477C59.6828 11.9639 59.3635 11.7888 58.832 11.7888H58.1625V13.2151H58.832ZM57.3304 11.1444H58.832C59.8142 11.1444 60.5023 11.5448 60.5023 12.4583V12.4833C60.5023 13.1838 60.0645 13.5405 59.5078 13.6842L60.7648 15.6176H59.8642L58.6943 13.8095H58.1625V15.6176H57.3304V11.1444Z" fill="#001B3C"/>
<path d="M61.09 14.2278H61.8908C61.9474 14.6783 62.1285 15.0539 62.8854 15.0539C63.3797 15.0539 63.7301 14.7786 63.7301 14.3655C63.7301 13.9525 63.524 13.7961 62.7982 13.6774C61.7281 13.5334 61.2216 13.2082 61.2216 12.37C61.2216 11.6379 61.8471 11.0872 62.7792 11.0872C63.7425 11.0872 64.3182 11.5253 64.4056 12.3822H63.6425C63.5611 11.913 63.2923 11.713 62.7792 11.713C62.2725 11.713 62.0098 11.957 62.0098 12.3011C62.0098 12.6641 62.1598 12.8452 62.9359 12.9582C63.9865 13.1019 64.5309 13.402 64.5309 14.2966C64.5309 15.0726 63.8741 15.6794 62.8854 15.6794C61.6654 15.6794 61.1526 15.0726 61.09 14.2278Z" fill="#001B3C"/>
<path d="M65.3625 11.1444H66.2007V15.6176H65.3625V11.1444Z" fill="#001B3C"/>
<path d="M68.1523 11.8014H66.9071V11.1444H70.2356V11.8014H68.9905V15.6176H68.1523V11.8014Z" fill="#001B3C"/>
<path d="M71.449 13.9035H72.769L72.1121 11.8262L71.449 13.9035ZM71.6178 11.1444H72.7066L74.1826 15.6176H73.3194L72.9627 14.5101H71.2547L70.9046 15.6176H70.1227L71.6178 11.1444Z" fill="#001B3C"/>
<path d="M75.32 11.8014H74.0748V11.1444H77.4031V11.8014H76.1582V15.6176H75.32V11.8014Z" fill="#001B3C"/>
<path d="M38.2361 22.8272C38.2361 20.1059 39.7367 18.1984 42.3564 18.1984C43.0304 18.1984 43.8441 18.2873 44.658 18.478V21.1611H44.6325L43.3482 18.6943C43.2464 18.4909 43.1701 18.478 42.9412 18.4399C42.7631 18.4144 42.5852 18.4017 42.4198 18.4017C40.4743 18.4017 39.7622 20.233 39.7622 22.8017C39.7622 25.5995 40.6014 27.1892 42.5089 27.1892C42.6489 27.1892 42.8141 27.1764 42.9541 27.1637C43.1701 27.1382 43.2464 27.0872 43.3355 26.9349L44.6325 24.3788H44.658V27.1764C43.8822 27.3416 43.0685 27.3924 42.5216 27.3924C39.5204 27.3924 38.2361 25.4977 38.2361 22.8272Z" fill="#001B3C"/>
<path d="M47.0225 25.5473C47.0225 26.2213 47.4421 26.6538 47.989 26.6538C48.4339 26.6538 48.8664 26.3739 49.1331 25.9161V25.878L49.1589 24.3137C48.9045 24.2248 48.663 24.1866 48.4212 24.1866C47.5057 24.1866 47.0225 24.8354 47.0225 25.5473ZM49.1842 22.8894V22.8513C49.1842 21.885 48.7519 21.1855 47.8235 21.1855C47.5057 21.1855 47.4802 21.1855 47.4039 21.3633L46.6281 23.042H46.6029L46.0304 21.3888C46.7425 21.0965 47.4421 20.9692 48.1668 20.9692C48.9171 20.9692 49.4133 21.0837 49.7819 21.4654C50.1381 21.834 50.3541 22.4698 50.3541 23.5508V23.7289L50.3033 25.8017C50.2907 26.3486 50.4175 26.6538 50.7613 26.6538C50.9902 26.6538 51.1172 26.5138 51.1809 26.2849H51.2062C51.2062 26.412 51.1809 26.552 51.1299 26.679C50.9902 27.0479 50.6466 27.3657 50.1507 27.3657C49.5911 27.3657 49.1331 26.946 49.1331 26.0177C48.879 26.8698 48.2434 27.3657 47.4294 27.3657C46.5518 27.3657 45.7763 26.7682 45.7763 25.6999C45.7763 24.4665 46.8191 23.8433 47.8364 23.8433C48.281 23.8433 48.7774 23.9578 49.1589 24.2374L49.1842 22.8894Z" fill="#001B3C"/>
<path d="M53.774 26.4124C53.774 26.5523 53.774 26.616 53.939 26.6796L55.287 27.2389V27.2645H51.5611V27.2389L52.4258 26.7304C52.566 26.6541 52.566 26.5905 52.566 26.4505V22.0253C52.566 21.8598 52.5531 21.8217 52.4258 21.7328L51.5611 21.0969V21.0714H53.774V23.0171C53.939 22.1524 54.6004 20.9696 55.7703 20.9696C56.0247 20.9696 56.2283 21.0204 56.3935 21.1224L55.7579 23.0045H55.7324L55.0963 21.5928C55.0713 21.542 55.0076 21.542 54.9439 21.5802C54.3462 21.923 54.0534 22.5593 53.774 23.1442V26.4124Z" fill="#001B3C"/>
<path d="M58.6296 26.4505C58.6296 26.5905 58.6296 26.6286 58.7822 26.7175L59.6345 27.2389V27.2645H56.4169V27.2389L57.2816 26.7302C57.4218 26.6541 57.4218 26.5905 57.4218 26.4505V19.1509C57.4218 18.9857 57.4087 18.935 57.2816 18.8587L56.4169 18.3501V18.3246L58.6296 18.0702V26.4505Z" fill="#001B3C"/>
<path d="M61.2877 23.4237H63.9074V23.3982C63.9074 21.9868 63.577 21.16 62.7375 21.16C61.8854 21.16 61.3895 22.0502 61.2877 23.4237ZM61.2751 23.6397V23.9959C61.2751 25.7127 62.0761 26.6409 63.119 26.6409C63.9963 26.6409 64.683 26.2086 65.141 25.0769L65.1665 25.0895C64.8992 26.6156 64.0219 27.3657 62.6994 27.3657C61.3132 27.3657 60.0541 26.412 60.0541 24.2248C60.0541 21.8082 61.5295 20.9692 62.7501 20.9692C63.9711 20.9692 65.141 21.694 65.141 23.3093C65.141 23.4237 65.1281 23.5382 65.1155 23.6397H61.2751Z" fill="#001B3C"/>
<path d="M71.6128 26.4505C71.6128 26.6031 71.6255 26.6541 71.7654 26.7302L72.6299 27.2389V27.2645H69.413V27.2389L70.2267 26.7302C70.3664 26.6412 70.3919 26.5649 70.3919 26.476C70.3919 26.3868 70.4301 24.4414 70.4301 23.9197C70.4301 22.3684 70.0867 21.7072 69.3364 21.7072C68.7516 21.7072 68.2936 22.0885 68.0011 22.648V26.4505C68.0011 26.5905 68.0011 26.6286 68.1539 26.7175L69.006 27.2389V27.2645H65.7883V27.2389L66.6531 26.7302C66.7933 26.6541 66.7933 26.5905 66.7933 26.4505V22.025C66.7933 21.8598 66.7801 21.8217 66.6531 21.7325L65.7883 21.0969V21.0714H68.0011V22.5717C68.3062 21.4657 68.9676 20.9696 69.8831 20.9696C70.7607 20.9696 71.3456 21.4657 71.5489 22.5465C71.8415 21.5294 72.5662 20.9696 73.533 20.9696C74.614 20.9696 75.2622 21.758 75.2622 23.513C75.2622 24.2633 75.2496 25.4332 75.2372 26.4505C75.2372 26.6031 75.2496 26.6541 75.3896 26.7302L76.2543 27.2389V27.2645H73.0371V27.2389L73.8508 26.7302C73.9905 26.6412 74.0163 26.5649 74.0163 26.476C74.0163 26.3742 74.0542 24.454 74.0542 23.9452C74.0542 22.4065 73.7364 21.7072 72.948 21.7072C72.3758 21.7072 71.9178 22.025 71.5621 22.6101C71.6128 22.8769 71.6384 23.1821 71.6384 23.513C71.6384 24.136 71.6255 25.4332 71.6128 26.4505Z" fill="#001B3C"/>
<path d="M77.9562 25.5473C77.9562 26.2213 78.3758 26.6538 78.9228 26.6538C79.3676 26.6538 79.8001 26.3739 80.0671 25.9161V25.878L80.0927 24.3137C79.8383 24.2248 79.5968 24.1866 79.355 24.1866C78.4395 24.1866 77.9562 24.8354 77.9562 25.5473ZM80.1182 22.8894V22.8513C80.1182 21.885 79.6859 21.1855 78.7573 21.1855C78.4395 21.1855 78.414 21.1855 78.3377 21.3633L77.5619 23.042H77.5366L76.9642 21.3888C77.6766 21.0965 78.3758 20.9692 79.1006 20.9692C79.8509 20.9692 80.347 21.0837 80.7156 21.4654C81.0718 21.834 81.2881 22.4698 81.2881 23.5508V23.7289L81.237 25.8017C81.2247 26.3486 81.3515 26.6538 81.695 26.6538C81.9239 26.6538 82.051 26.5138 82.1147 26.2849H82.1402C82.1402 26.412 82.1147 26.552 82.0636 26.679C81.9239 27.0479 81.5806 27.3657 81.0845 27.3657C80.5249 27.3657 80.0671 26.946 80.0671 26.0177C79.813 26.8698 79.1772 27.3657 78.3632 27.3657C77.4858 27.3657 76.71 26.7682 76.71 25.6999C76.71 24.4665 77.7529 23.8433 78.7704 23.8433C79.215 23.8433 79.7112 23.9578 80.0927 24.2374L80.1182 22.8894Z" fill="#001B3C"/>
<path d="M88.3205 26.4505C88.3205 26.6031 88.3331 26.6541 88.4731 26.7302L89.3378 27.2389V27.2645H86.1206V27.2389L86.9346 26.7302C87.0743 26.6412 87.0995 26.5649 87.0995 26.476C87.0995 26.3868 87.1379 24.4414 87.1379 23.9197C87.1379 22.3684 86.7944 21.7072 86.0443 21.7072C85.4593 21.7072 85.0015 22.0885 84.709 22.648V26.4505C84.709 26.5905 84.709 26.6286 84.8618 26.7175L85.7139 27.2389V27.2645H82.4962V27.2389L83.361 26.7302C83.5009 26.6541 83.5009 26.5905 83.5009 26.4505V22.025C83.5009 21.8598 83.488 21.8217 83.361 21.7325L82.4962 21.0969V21.0714H84.709V22.5717C85.0141 21.4657 85.6755 20.9696 86.591 20.9696C87.7101 20.9696 88.3462 21.758 88.3462 23.513C88.3462 24.136 88.3331 25.4332 88.3205 26.4505Z" fill="#001B3C"/>
<path d="M89.4505 30.138L89.8957 28.2176H89.9212L90.6586 29.4895C90.7223 29.5911 90.7478 29.6419 90.8112 29.6419C90.862 29.6419 90.913 29.5911 90.9638 29.5274C91.2689 29.1586 91.5741 28.4975 91.7396 28.0395L91.9048 27.582L89.7049 21.9482C89.6031 21.7067 89.5523 21.6304 89.4632 21.516L89.1454 21.0964V21.0709H91.6633V21.0964L91.0529 21.6812C90.9511 21.7704 90.9385 21.8211 91.0019 21.9864L92.528 25.9288L93.8886 22.3807C93.9649 22.1771 93.9649 22.1392 93.8505 21.9992L93.0876 21.0964V21.0709H95.0585V21.0964L94.3464 21.974C94.2319 22.101 94.1938 22.1771 94.1049 22.4062L91.9429 28.0779C91.7522 28.5738 91.5741 28.9934 91.3071 29.413C90.9385 29.9981 90.5186 30.2651 89.9846 30.2651C89.7683 30.2651 89.5905 30.2143 89.4505 30.138Z" fill="#001B3C"/>
</svg>
